X:155
T:The Siege of Ennis
R:polka
S:Eileen Ni Riordan
H:Also played in G. Also played with only the first two parts.
Z:id:hn-polka-5
M:2/4
L:1/8
K:A
E>F EC|EF A>B|ce Bc/B/|AF dF|E>F EC|EF A>B|ce Bc/B/|1 A2 AF:|2 A2 AB||
ce ec|df fe|ce Bc/B/|AF dF|ce ec|df fg|af g/f/e|f2 fg|
af g/f/e|f/g/f/e/ cB|ce Bc/B/|AF dF|E>F EC|EF A>B|ce Bc/B/|A2 AB||
